public/linkedin.svg

<svg height="512pt" viewBox="0 0 512 512" width="512pt" xmlns="http://www.w3.org/2000/svg"><path d="m475.074219 0h-438.148438c-20.394531 0-36.925781 16.53125-36.925781 36.925781v438.148438c0 20.394531 16.53125 36.925781 36.925781 36.925781h438.148438c20.394531 0 36.925781-16.53125 36.925781-36.925781v-438.148438c0-20.394531-16.53125-36.925781-36.925781-36.925781zm-293.464844 387h-62.347656v-187.574219h62.347656zm-31.171875-213.1875h-.40625c-20.921875 0-34.453125-14.402344-34.453125-32.402344 0-18.40625 13.945313-32.410156 35.273437-32.410156 21.328126 0 34.453126 14.003906 34.859376 32.410156 0 18-13.53125 32.402344-35.273438 32.402344zm255.984375 213.1875h-62.339844v-100.347656c0-25.21875-9.027343-42.417969-31.585937-42.417969-17.222656 0-27.480469 11.601563-31.988282 22.800781-1.648437 4.007813-2.050781 9.609375-2.050781 15.214844v104.75h-62.34375s.816407-169.976562 0-187.574219h62.34375v26.558594c8.285157-12.78125 23.109375-30.960937 56.1875-30.960937 41.019531 0 71.777344 26.808593 71.777344 84.421874zm0 0"/></svg>

<?xml version="1.0" encoding="UTF-8"?>
<svg width="512px" height="512px" viewBox="0 0 512 512" version="1.1" xmlns="http://www.w3.org/2000/svg" xmlns:xlink="http://www.w3.org/1999/xlink">
    <!-- Generator: Sketch 52.6 (67491) - http://www.bohemiancoding.com/sketch -->
    <title>linkedin</title>
    <desc>Created with Sketch.</desc>
    <g id="Page-1" stroke="none" stroke-width="1" fill="none" fill-rule="evenodd">
        <g id="linkedin" fill="#FFFFFF" fill-rule="nonzero">
            <path d="M475.074219,0 L36.925781,0 C16.53125,0 2.84217094e-14,16.53125 2.84217094e-14,36.925781 L2.84217094e-14,475.074219 C2.84217094e-14,495.46875 16.53125,512 36.925781,512 L475.074219,512 C495.46875,512 512,495.46875 512,475.074219 L512,36.925781 C512,16.53125 495.46875,-2.84217094e-14 475.074219,0 Z M181.609375,387 L119.261719,387 L119.261719,199.425781 L181.609375,199.425781 L181.609375,387 Z M150.4375,173.8125 L150.03125,173.8125 C129.109375,173.8125 115.578125,159.410156 115.578125,141.410156 C115.578125,123.003906 129.523438,109 150.851562,109 C172.179688,109 185.304688,123.003906 185.710938,141.410156 C185.710938,159.410156 172.179688,173.8125 150.4375,173.8125 Z M406.421875,387 L344.082031,387 L344.082031,286.652344 C344.082031,261.433594 335.054688,244.234375 312.496094,244.234375 C295.273438,244.234375 285.015625,255.835938 280.507812,267.035156 C278.859375,271.042969 278.457031,276.644531 278.457031,282.25 L278.457031,387 L216.113281,387 C216.113281,387 216.929688,217.023438 216.113281,199.425781 L278.457031,199.425781 L278.457031,225.984375 C286.742188,213.203125 301.566406,195.023438 334.644531,195.023438 C375.664062,195.023438 406.421875,221.832031 406.421875,279.445312 L406.421875,387 Z" id="Shape"></path>
        </g>
    </g>
</svg>
